app/result/img/star-empty.svg

<svg width="14" height="12" viewBox="0 0 14 12" fill="none" xmlns="http://www.w3.org/2000/svg">
<path d="M13.3149 4.27174C13.1688 4.11781 12.9692 4.0177 12.7516 3.98927V3.98885L9.35432 3.54829L8.00992 0.532645C7.81361 0.0912375 7.27329 -0.1172 6.80311 0.0670818C6.57896 0.154941 6.40073 0.322224 6.30717 0.532645L4.96276 3.54829L1.56545 3.98885C1.05929 4.05499 0.706072 4.49383 0.776528 4.96899C0.806807 5.17318 0.913453 5.3606 1.07742 5.49775L3.63706 7.64046L3.11113 11.0028C3.05416 11.3442 3.2212 11.6844 3.53477 11.8654C3.84393 12.051 4.2416 12.0441 4.54319 11.8478L7.15851 10.1782L9.77384 11.8496C10.1959 12.1184 10.7702 12.0153 11.0566 11.6191C11.1868 11.4391 11.2401 11.2197 11.2059 11.0045L10.68 7.64086L13.2397 5.49815C13.6212 5.17901 13.6549 4.6299 13.3149 4.27174ZM9.88843 7.15661C9.77392 7.25266 9.71853 7.39629 9.74097 7.53889L10.2888 11.1386L7.41645 9.30534C7.2616 9.20656 7.05818 9.20656 6.90333 9.30534L4.0141 11.1275L4.57606 7.53718C4.59789 7.39516 4.54252 7.25231 4.4286 7.15664L1.68956 4.83907L5.34527 4.36552C5.50533 4.34481 5.64177 4.2462 5.70407 4.10626L7.16397 0.857065C7.16563 0.858973 7.16686 0.861158 7.16764 0.863493L8.61248 4.10455C8.67478 4.24449 8.81125 4.3431 8.97128 4.36381L12.6316 4.85835L9.88843 7.15661Z" fill="#C7CED6"/>
</svg>

<svg width="14" height="12" viewBox="0 0 14 12" fill="none" xmlns="http://www.w3.org/2000/svg"><path d="M13.315 4.272a.945.945 0 0 0-.563-.283l-3.398-.44L8.01.532C7.814.09 7.273-.117 6.803.067a.896.896 0 0 0-.496.466L4.963 3.548l-3.398.44c-.506.067-.859.506-.788.981.03.204.136.392.3.529l2.56 2.142-.526 3.363a.839.839 0 0 0 .424.862.96.96 0 0 0 1.008-.017l2.616-1.67 2.615 1.672c.422.268.996.165 1.283-.23.13-.18.183-.4.149-.615L10.68 7.64l2.56-2.143a.832.832 0 0 0 .075-1.226zM9.888 7.157a.414.414 0 0 0-.147.382l.548 3.6-2.873-1.834a.481.481 0 0 0-.513 0l-2.889 1.822.562-3.59a.414.414 0 0 0-.147-.38l-2.74-2.318 3.656-.473c.16-.021.297-.12.36-.26L7.163.857a.019.019 0 0 1 .004.006l1.444 3.242c.063.14.2.238.36.259l3.66.494-2.744 2.299z" fill="#C7CED6"/></svg>
